X:1
T: Päckos Olle polska
R: Polska
O: Bingsjö, Dalarna
S: Utlärd av Jonas Hjalmarsson
Z: Karin Arén
M: 3/4
L: 1/8
K: Dm
D/E/F/G/ A2 d2 | A=B/A/ GA/G/ F/E/D/^C/ |  D>e f/e/f/a/ g/f/e/d/ | ^ca a/g/e/c/ A2 | 
D/E/F/G/ A2 d2 | A=B/A/ GA/G/ F/E/D/^C/ |  D>e f/e/f/a/ g/f/e/d/ | (A/^c/)e/c/ d2 z2 :|: 
Ad/f/ aTa gg | A^c/e/ g/b/g/e/ f2 | f/a/f/d/ e/g/e/^c/ de/g/ | fe/d/ ^c/d/e/c/ A2 | 
Ad/f/ ab/a/ gg | A^c/e/ g/b/g/e/ f2 | f/a/f/d/ e/g/e/^c/ de/g/ | fe/^c/ d2 z2 :|

